X:1
T:Title
%%score { ( 1 4 ) | ( 2 3 5 ) }
L:1/8
M:4/4
K:G
V:1 treble nm="Grand Piano"
V:4 treble 
V:2 bass 
V:3 bass 
V:5 bass 
V:1
 z4 z2[Q:1/4=100] G>A | [DB]>A [B,G]>A [DB]2 [DFc]2 | [Gd]4 B2 A2 | G2 F>G [A,^CA]2 [G,CE]2 | %4
[M:3/4] A6[K:bass] |[M:1/4][K:treble] G>A |[M:4/4] [DB]>A [B,G]>A B2 ^c2 | d4 z4 | %8
 F2 A>G F2 [^CE]2 | D8 | D2 D2 E2 E2 | z4 F4 | F2 F2 A2 A2 | z4 B4 | %14
 [D^GB]2 [DG_B]2 [EAd]2 [EAc]2 | z2 ^G2 z4 | G2 F>G [^CGB]2 [CGA]2 | G2 z2 z4 | D2 D2 E2 E2 | %19
 z4 F4 | F2 F2 A2 A2 | z4 B4 | [D^GB]2 [DG_B]2 [EAd]2 [EAc]2 | [CFA]2 [CF^G]2 [D=Gc]2 [DGB]2 | %24
 [CEA]2 [^CE]>[EG] [GB]2 [=CFA]2 |[M:3/4] [B,DG]6 |] %26
V:2
 z4 z2 B,>C | z z/ C/ z z/ C/ G,2 A,,2 | B,,2 D,2 [G,DG]2 [F,A,D]2 | z2 [E,B,]2 z4 | %4
[M:3/4] [D,C]6 |[M:1/4] B,>C |[M:4/4] G,->[G,C] z z/ C/ [G,D]2 [G,E]2 | A,2 z2 [G,B,]2 z z/ D/ | %8
 [A,D]2 [F,A,D]>[G,B,D] [A,D]2 [A,,G,]2 | F,2 z2 z4 | [G,B,]2 [D,G,B,]2 [G,B,]2 [D,G,C]2 | %11
 [A,C]2 [D,A,C]2 [A,C]2 [D,A,]2 | [A,CD]2 [D,CD]2 [F,CD]2 [D,CD]2 | %13
 [G,CD]2 [D,CD]2 [G,B,D]2 [=F,D]2 | z z/[K:treble] B/ z z/ B/ A,2 A,2 | %15
 z z/ A/ D,2[K:treble] [G,DG]2 [G,DG]2 | [B,D]2 [B,D]>[B,D] [A,,A,]4 | [D,,D,]4 E,2 F,2 | %18
 [G,B,]2 [D,G,B,]2 [G,B,]2 [D,G,C]2 | [A,C]2 [D,A,C]2 [A,C]2 [D,A,]2 | %20
 [A,CD]2 [D,CD]2 [F,CD]2 [D,CD]2 | [G,CD]2 [D,CD]2 [G,B,D]2 [=F,D]2 | %22
 z z/[K:treble] B/ z z/ B/ A,2 A,2 | z z/ A/ z z/[K:treble] A/ G,2[K:bass] G,2 | %24
 C,2 z z/ ^C/ [D,D]2 [D,,D,]2 |[M:3/4] [G,,G,]2 D,2 G,,2 |] %26
V:3
 x8 | G,,2 D,2 z4 | x8 | [E,B,D]2 D>D A,,2 A,,2 |[M:3/4] G,2 z2 z2 |[M:1/4] [D,F,]2 | %6
[M:4/4] z2 D,2 z4 | [F,D]4 z2 [^G,B,]2 | x8 | D,4 E,2 [F,A,]2 | x8 | x8 | x8 | x8 | %14
 E,2[K:treble] E,2 z4 | D,2 z2[K:treble] z4 | E,4 z4 | x8 | x8 | x8 | x8 | x8 | %22
 E,2[K:treble] E,2 z4 | D,2 D,2[K:treble] z4[K:bass] | z2 A,,2 z4 |[M:3/4] x6 |] %26
V:4
 x8 | x8 | x8 | x8 |[M:3/4] z2[K:bass] F,2 E,2 |[M:1/4][K:treble] x2 |[M:4/4] x8 | z2 _B,2 D2 D>E | %8
 x8 | z2 C2 B,2 C2 | x8 | G>F F>E z2 C2 | x8 | A>G G>A z2 G2 | x8 | [CFA]2 [CF]->[CFA] c2 B2 | x8 | %17
 [DA]2- [D-FA-]2 [DEA-]2 [DA]2 | x8 | G>F F>E z2 C2 | x8 | A>G G>A z2 G2 | x8 | x8 | x8 | %25
[M:3/4] x6 |] %26
V:5
 x8 | x8 | x8 | x8 |[M:3/4] x6 |[M:1/4] x2 |[M:4/4] G,,6 z2 | x8 | x8 | x8 | x8 | x8 | x8 | x8 | %14
 x3/2[K:treble] x13/2 | x4[K:treble] x4 | x8 | x8 | x8 | x8 | x8 | x8 | x3/2[K:treble] x13/2 | %23
 x7/2[K:treble] x5/2[K:bass] x2 | x8 |[M:3/4] x6 |] %26

